X: 166
T: REEL: Windbroke
C: C: Michael McGoldrick; S: Various
C: Set Leaders: Vova, Anton
Z: Oleg Naumov arr.; Donough at The Session
N: https://thesession.org/members/26966/sets/96726
R: Reel
M: 4/4
L: 1/8
Q: 1/2=100
K: Emin
|:"Em"BE~E2 GAB"Em"E-|EGAd B2 AG|"Em"BE~E2 GAB"Am"c-|cBAG "Bm7"ABAG|
"Em"BE~E2 GAB"Em"E-|EGAd B2 AG|e"D"dde "Bm7"~B2 A"Am"G|A2 AG "Bm7"FGAc:||
|:"Em"Begf efd"Em"e-|eedf e2 eA|Begf efg"Am"a-|a a2 g "Bm7"fede|
"Em (C)"Begf efd"Em"e-|e edf e2 eB|"Am"~c3 A "(G)"~B3 G|"D/F#"A2 AG "(Bm7)"FGAc:||

